www/img/haxe-logo.svg

<?xml version="1.0" encoding="UTF-8" standalone="no"?>
<!-- Created with Inkscape (http://www.inkscape.org/) -->

<svg
   xmlns:dc="http://purl.org/dc/elements/1.1/"
   xmlns:cc="http://creativecommons.org/ns#"
   xmlns:rdf="http://www.w3.org/1999/02/22-rdf-syntax-ns#"
   xmlns:svg="http://www.w3.org/2000/svg"
   xmlns="http://www.w3.org/2000/svg"
   xmlns:sodipodi="http://sodipodi.sourceforge.net/DTD/sodipodi-0.dtd"
   xmlns:inkscape="http://www.inkscape.org/namespaces/inkscape"
   id="svg2"
   version="1.1"
   inkscape:version="0.48.3.1 r9886"
   width="230"
   height="230"
   xml:space="preserve"
   sodipodi:docname="haxe-logo-vertical.svg"><metadata
     id="metadata8"><rdf:RDF><cc:Work
         rdf:about=""><dc:format>image/svg+xml</dc:format><dc:type
           rdf:resource="http://purl.org/dc/dcmitype/StillImage" /><dc:title></dc:title></cc:Work></rdf:RDF></metadata><defs
     id="defs6" /><sodipodi:namedview
     pagecolor="#ffffff"
     bordercolor="#666666"
     borderopacity="1"
     objecttolerance="10"
     gridtolerance="10"
     guidetolerance="10"
     inkscape:pageopacity="0"
     inkscape:pageshadow="2"
     inkscape:window-width="1317"
     inkscape:window-height="744"
     id="namedview4"
     showgrid="false"
     inkscape:zoom="1.5658194"
     inkscape:cx="203.86004"
     inkscape:cy="57.713244"
     inkscape:window-x="207"
     inkscape:window-y="1074"
     inkscape:window-maximized="1"
     inkscape:current-layer="g10"
     fit-margin-top="0"
     fit-margin-left="0"
     fit-margin-right="0"
     fit-margin-bottom="0" /><g
     id="g10"
     inkscape:groupmode="layer"
     inkscape:label="ink_ext_XXXXXX"
     transform="matrix(1.25,0,0,-1.25,0,229.99999)"><g
       id="g12"
       transform="matrix(0.14704825,0,0,0.14704825,0,-66.754179)"><path
         d="M 625.645,1548.82 156.406,1079.59 625.645,610.371 1094.86,1079.59 625.645,1548.82"
         style="fill:#f68712;fill-opacity:1;fill-rule:nonzero;stroke:none"
         id="path14"
         inkscape:connector-curvature="0" /><path
         d="M 0,1705.23 625.645,1548.82 156.406,1079.59 0,1705.23"
         style="fill:#fab20b;fill-opacity:1;fill-rule:nonzero;stroke:none"
         id="path16"
         inkscape:connector-curvature="0" /><path
         d="m 1251.29,1705.23 -156.43,-625.64 -469.215,469.23 625.645,156.41"
         style="fill:#f47216;fill-opacity:1;fill-rule:nonzero;stroke:none"
         id="path18"
         inkscape:connector-curvature="0" /><path
         d="M 1251.29,453.961 625.645,610.371 1094.86,1079.59 1251.29,453.961"
         style="fill:#f25c19;fill-opacity:1;fill-rule:nonzero;stroke:none"
         id="path20"
         inkscape:connector-curvature="0" /><path
         d="M 0,453.961 156.406,1079.59 625.645,610.371 0,453.961"
         style="fill:#f89c0e;fill-opacity:1;fill-rule:nonzero;stroke:none"
         id="path22"
         inkscape:connector-curvature="0" /><path
         d="M 625.645,1548.82 0,1705.23 l 312.812,0 312.833,-156.41"
         style="fill:#fbc707;fill-opacity:1;fill-rule:nonzero;stroke:none"
         id="path24"
         inkscape:connector-curvature="0" /><path
         d="m 625.645,1548.82 625.645,156.41 -312.833,0 -312.812,-156.41"
         style="fill:#fbc707;fill-opacity:1;fill-rule:nonzero;stroke:none"
         id="path26"
         inkscape:connector-curvature="0" /><path
         d="m 625.645,610.371 625.645,-156.41 -312.833,0 -312.812,156.41"
         style="fill:#f68712;fill-opacity:1;fill-rule:nonzero;stroke:none"
         id="path28"
         inkscape:connector-curvature="0" /><path
         d="M 625.645,610.371 0,453.961 l 312.812,0 312.833,156.41"
         style="fill:#f25c19;fill-opacity:1;fill-rule:nonzero;stroke:none"
         id="path30"
         inkscape:connector-curvature="0" /><path
         d="M 156.406,1079.59 0,453.961 0,766.773 156.406,1079.59"
         style="fill:#fff200;fill-opacity:1;fill-rule:nonzero;stroke:none"
         id="path32"
         inkscape:connector-curvature="0" /><path
         d="M 156.406,1079.59 0,1705.23 0,1392.42 156.406,1079.59"
         style="fill:#fff200;fill-opacity:1;fill-rule:nonzero;stroke:none"
         id="path34"
         inkscape:connector-curvature="0" /><path
         d="m 1094.86,1079.59 156.43,625.64 0,-312.81 -156.43,-312.83"
         style="fill:#f1471d;fill-opacity:1;fill-rule:nonzero;stroke:none"
         id="path36"
         inkscape:connector-curvature="0" /><path
         d="m 1094.86,1079.59 156.43,-625.629 0,312.812 -156.43,312.817"
         style="fill:#f1471d;fill-opacity:1;fill-rule:nonzero;stroke:none"
         id="path38"
         inkscape:connector-curvature="0" /></g></g></svg>

<svg xmlns:dc="http://purl.org/dc/elements/1.1/" xmlns:cc="http://creativecommons.org/ns#" xmlns:rdf="http://www.w3.org/1999/02/22-rdf-syntax-ns#" xmlns:svg="http://www.w3.org/2000/svg" xmlns:sodipodi="http://sodipodi.sourceforge.net/DTD/sodipodi-0.dtd" xmlns:inkscape="http://www.inkscape.org/namespaces/inkscape" xmlns="http://www.w3.org/2000/svg" xmlns:xlink="http://www.w3.org/1999/xlink" version="1.1" id="svg2" inkscape:version="0.48.3.1 r9886" x="0px" y="0px" width="230px" height="230px" viewBox="0 0 230 230" enable-background="new 0 0 230 230" xml:space="preserve">
<g id="g10" transform="matrix(1.25,0,0,-1.25,0,229.99999)" inkscape:label="ink_ext_XXXXXX" inkscape:groupmode="layer">
	<g id="g12" transform="matrix(0.14704825,0,0,0.14704825,0,-66.754179)">
		<path id="path24" inkscape:connector-curvature="0" fill="#FBC707" d="M625.646 1548.821L269.3 1588.285L0 1705.233h312.812 L625.646 1548.8"/>
		<path id="path26" inkscape:connector-curvature="0" fill="#FBC707" d="M625.646 1548.821l364.507 31.304l261.139 125.108H938.458 L625.646 1548.8"/>
		<path id="path28" inkscape:connector-curvature="0" fill="#F68712" d="M625.646 610.373l340.025-12.241l285.621-144.171H938.458 L625.646 610.4"/>
		<path id="path30" inkscape:connector-curvature="0" fill="#F25C19" d="M625.646 610.373H282.901L0 453.962h312.812 L625.646 610.4"/>
		<path id="path32" inkscape:connector-curvature="0" fill="#FFF200" d="M156.406 1079.592V750.464L0 453.962v312.812 L156.406 1079.6"/>
		<path id="path34" inkscape:connector-curvature="0" fill="#FFF200" d="M156.406 1079.592l-25.837 326.44L0 1705.233v-312.81 L156.406 1079.6"/>
		<path id="path36" inkscape:connector-curvature="0" fill="#F1471D" d="M1094.859 1079.592l34.024 342.761l122.409 282.88v-312.81 L1094.859 1079.6"/>
		<path id="path38" inkscape:connector-curvature="0" fill="#F1471D" d="M1094.859 1079.592l28.583-367.211l127.849-258.419v312.812 L1094.859 1079.6"/>
		<path id="path16" inkscape:connector-curvature="0" fill="#FAB20B" d="M0 1705.233l625.646-156.412l-100.647-398.488 l-368.593-70.741L0 1705.2"/>
		<path id="path18" inkscape:connector-curvature="0" fill="#F47216" d="M1251.292 1705.233l-156.433-625.641l-420.25 76.2 l-48.964 393.048L1251.292 1705.2"/>
		<path id="path20" inkscape:connector-curvature="0" fill="#F25C19" d="M1251.292 453.962L625.646 610.373l70.725 414.8 l398.488 54.388L1251.292 454"/>
		<path id="path22" inkscape:connector-curvature="0" fill="#F89C0E" d="M0 453.962l156.406 625.63l376.753-84.31l92.487-384.908 L0 454"/>
		<path id="path14" inkscape:connector-curvature="0" fill="#F68712" d="M625.646 1548.821l-469.24-469.229l469.24-469.219 l469.213 469.219L625.646 1548.8"/>
	</g>
</g>
</svg>
